X: 14728
T: Gan Ainm
R: hornpipe
M: 4/4
K: Edorian
e2 ef geaf|gedB G4|AdcA GA E2|(3Bcd ef gbag|
e2 ef geaf|gedB G4|AdcA GA E2|(3ABA GE D4|
GEEF GABA|EFGA FDAF|GEEF GABA|efgf edBA|
GEEF GABA|EFGA FDAF|GFAG BAcB|dced fegf|

